X:249
T:
R:polska
S:Ur von Baumgartens samling, Visby.
O:Gotland, Visby
M:3/4
L:1/16
K:D
Ld4 DFAd fagf|edcB AGFE D4|A,EAE B,EAE CEAE|DFAD CEAF D4|
DFAd fagf edcB|EGBe gbag fedc|DFAd fagf efga|bgec d4 D4::
L[DAf]4 Adfe dcBA|GABA G2D2 B,2G,2|L[G,EBg]4 efgf edcB|
ABcd edcB AGFE|DFAd f2d2 c2d2|EGBe g2e2 ^d2e2|DEFG ABcd efga|
bgec d4 D4:|

